packages/core/src/svgs/tokens/mono/NFTART.svg

<svg width="24" height="24" viewBox="0 0 24 24" fill="none" xmlns="http://www.w3.org/2000/svg">
<path d="M5.12498 3.25V10.125H2V13.8749H3.71874C4.53124 13.8749 4.94374 12.8375 5.12498 11.8937V20.7499H8.87497V10.2688L16.0624 20.7499H18.8749V13.8749H22V10.125H20.2812C19.4686 10.125 19.0562 11.1625 18.8749 12.1063V3.25H15.125V13.85L7.87498 3.25H5.12498Z" fill="white"/>
</svg>

<svg xmlns="http://www.w3.org/2000/svg" width="24" height="24" fill="none" viewBox="0 0 24 24">
    <path fill="#fff" d="M5.125 3.25v6.875H2v3.75h1.719c.812 0 1.225-1.037 1.406-1.981v8.856h3.75V10.269l7.187 10.48h2.813v-6.874H22v-3.75h-1.719c-.812 0-1.225 1.037-1.406 1.981V3.25h-3.75v10.6l-7.25-10.6z"/>
</svg>
